X: 1
T: Kotimaani ompi Suomi
T: My Homeland is Finland
O: Trad Finland
Z: John Chambers <jc:trillian.mit.edu>
M: 3/4
L: 1/8
K: C
CE \
| "C"G3 E (3CEG | "Am"c2 "Em"B2 "F"A>A | "G"G3 D FA \
| "C"G4 c>B | "F"A3 F A>c | "C"G2 E2 "Am"CE |
| "Dm"G3 F "G7"A,B, | "C"C4 c>B | "F"A3 F "F#dim"A>c \
| "C/G"G2 E2 "Am"CE | "Dm"G3 F "G7"A,B, | "C"C4 |]
